X:1
T:Title
%%score { ( 1 3 ) | 2 }
L:1/8
M:4/4
K:Eb
V:1 treble nm="Grand Piano"
V:3 treble 
V:2 bass 
V:1
 z4 z2[Q:1/4=100] E2 | G2 [GB]2 [GB]2 G2 | A2 c2 B4 | E2 E2 F2 G2 |[M:3/4] [DF]6 |[M:1/4] E2 | %6
[M:4/4] G2 [GB]2 [GB]2 G2 | A2 c2 B4 | E2 E2 [EG]2 [DF]2 | E6 z2 | G2 [GB]2 [Ge]3 [Ac] | [Ge]6 z2 | %12
 [EGB]3 [EAc] [EGB]2 [B,EG]2 |[M:3/4] [DFB]6 |[M:1/4] [B,FA]2 | %15
[M:4/4] [B,EG]2 [B,GB]2 [Ge]2 [EGB]2 |[M:9/8] [EAc]2 [EAc]- [EAc] [EGB]2- [EGB] [B,E]2 | %17
[M:4/4] [EG] [EG]3 [A,DF]2 [A,DF]2 |[M:3/4] [G,B,E]6 |] %19
V:2
 z4 z2 [E,G,]2 | [E,B,E]2 [E,E]2 [E,E]2 [E,B,E]2 | [E,CE]2 [E,A,E]2 [E,G,E]4 | %3
 [G,B,]2 [G,B,]2 [F,B,D]2 [E,B,E]2 |[M:3/4] [B,,B,]6 |[M:1/4] [E,G,]2 | %6
[M:4/4] [E,B,E]2 [E,E]2 [E,E]2 [E,B,E]2 | [E,CE]2 [E,A,E]2 [E,G,E]4 | %8
 [B,,G,]2 [B,,G,]2 [B,,B,]2 [B,,A,]2 | [E,G,]6 z2 | [E,B,E]2 [E,B,]2 [E,B,]2 z2 | %11
 [E,B,]2 E,2 E,2 E,2 | E,3 E, E,2 E,2 |[M:3/4] B,,6 |[M:1/4] B,,2 |[M:4/4] E,2 E,2 [E,B,]2 E,2 | %16
[M:9/8] A,2 A,- A, E,2- E, G,2 |[M:4/4] B, B,3 B,,2 B,,2 |[M:3/4] E,6 |] %19
V:3
 x8 | x8 | x8 | x8 |[M:3/4] x6 |[M:1/4] x2 |[M:4/4] x8 | x8 | x8 | x8 | x8 | z2 B,2 B,2 [EAc]2 | %12
 x8 |[M:3/4] x6 |[M:1/4] x2 |[M:4/4] x8 |[M:9/8] x9 |[M:4/4] x8 |[M:3/4] x6 |] %19

